X: 1
T:Gi'e the Lasses mair o't
M:C
K:D
F|\
A2A2 (d>e f>)(e| d<B) A>F E>D EF| \
A2A2 d>e f>e| (d<B A)>F "tr"E2D:|
f|\
a<f f>b a>g "tr"ed| (c/d/e/f/ g)>e b>e g>e|\
a<f f>b af ed| (c/d/e/f/ g)f "tr"e2d2|
a(<f f>)b a>f "tr"ed| (c/d/e/f/ g)e b>e g>e|\
a>f e>d d>e f>e| d<B "tr"A>F "tr"E2D|]
